assets/images/icons/marker.svg

<svg width="101" height="107" viewBox="0 0 101 107" fill="none" xmlns="http://www.w3.org/2000/svg">
<g filter="url(#filter0_d)">
<path d="M24 0H77V47.5204L50.5 59L24 47.5204V0Z" fill="white"/>
<path fill-rule="evenodd" clip-rule="evenodd" d="M37.0534 13H38.8699H55.5786C62.079 13 67.4684 17.9686 68.2791 24.3547H61.4034C60.7129 21.9923 58.5361 20.2548 55.984 20.2548H37.2485H35.5371L34.0059 13H37.0534Z" fill="#0000BD"/>
<path d="M54.9756 25.3783H56.672L55.8613 23.7779H55.8163L54.9756 25.3783ZM54.0148 27.2834H52.8288L55.0807 22.9702H56.5819L58.8187 27.2834H57.6328L57.0923 26.2013H54.5852L54.0148 27.2834ZM48.4302 22.9702H52.0632V23.8237H49.436V27.2834H48.4152V22.9702H48.4302ZM43.5061 23.8237V25.1497H45.2025C45.4577 25.1497 45.6229 25.1039 45.7129 24.9972C45.803 24.8906 45.8631 24.7229 45.8631 24.479C45.8631 24.2504 45.818 24.0828 45.7279 23.9913C45.6229 23.8846 45.4577 23.8237 45.2025 23.8237H43.5061ZM43.5061 26.0032V27.2682H42.4853V22.9702H45.3827C45.9231 22.9702 46.2984 23.0921 46.5386 23.3207C46.7638 23.5493 46.8839 23.9456 46.8839 24.479C46.8839 25.0277 46.7638 25.424 46.5386 25.6526C46.3134 25.8965 45.9381 26.0032 45.3977 26.0032H43.5061ZM37.306 24.7229H39.8281V24.54C39.8281 24.2047 39.7831 24.0066 39.678 23.9151C39.5729 23.8237 39.3477 23.7932 39.0024 23.7932H37.6963C37.3961 23.7932 37.2009 23.8389 37.0658 23.9304C36.9457 24.0218 36.8857 24.1895 36.8857 24.4028H35.8648C35.8648 23.8389 36.0149 23.4426 36.3152 23.214C36.5704 23.0311 36.9757 22.9244 37.5162 22.9244H39.1976C39.8281 22.9244 40.2484 23.0311 40.4886 23.2445C40.7138 23.4579 40.8339 23.8694 40.8339 24.4943V25.7593C40.8339 26.3385 40.7288 26.7347 40.5036 26.9634C40.2785 27.1767 39.8731 27.2987 39.2876 27.2987H37.4111C36.7956 27.2987 36.3903 27.192 36.1801 26.9938C35.9699 26.7805 35.8798 26.3842 35.8798 25.805H36.9007C36.9007 26.0641 36.9607 26.2318 37.0808 26.3232C37.2009 26.4147 37.4111 26.4452 37.7264 26.4452H39.0324C39.3327 26.4452 39.5429 26.3994 39.663 26.308C39.7981 26.2013 39.8581 25.9879 39.8581 25.6679V25.4697H37.306V24.7229Z" fill="#2B2A29"/>
<path fill-rule="evenodd" clip-rule="evenodd" d="M37.0536 37.2035H38.8701H55.5789C62.0792 37.2035 67.4686 32.2196 68.2793 25.8488H61.4037C60.7131 28.2112 58.5363 29.9487 55.9842 29.9487H37.2488H35.5373L34.0061 37.2035H37.0536Z" fill="#E31E24"/>
</g>
<defs>
<filter id="filter0_d" x="0" y="0" width="101" height="107" filterUnits="userSpaceOnUse" color-interpolation-filters="sRGB">
<feFlood flood-opacity="0" result="BackgroundImageFix"/>
<feColorMatrix in="SourceAlpha" type="matrix" values="0 0 0 0 0 0 0 0 0 0 0 0 0 0 0 0 0 0 127 0"/>
<feOffset dy="24"/>
<feGaussianBlur stdDeviation="12"/>
<feColorMatrix type="matrix" values="0 0 0 0 0 0 0 0 0 0 0 0 0 0 0 0 0 0 0.25 0"/>
<feBlend mode="normal" in2="BackgroundImageFix" result="effect1_dropShadow"/>
<feBlend mode="normal" in="SourceGraphic" in2="effect1_dropShadow" result="shape"/>
</filter>
</defs>
</svg>

<svg width="101" height="107" fill="none" xmlns="http://www.w3.org/2000/svg"><g filter="url(#filter0_d)"><path d="M24 0h53v47.52L50.5 59 24 47.52V0z" fill="#fff"/><path fill-rule="evenodd" clip-rule="evenodd" d="M37.053 13H55.58c6.5 0 11.89 4.969 12.7 11.355h-6.876c-.69-2.363-2.867-4.1-5.419-4.1H35.538L34.005 13h3.047z" fill="#0000BD"/><path d="M54.976 25.378h1.696l-.81-1.6h-.046l-.84 1.6zm-.961 1.905h-1.186l2.252-4.313h1.5l2.238 4.313h-1.186l-.54-1.082h-2.508l-.57 1.082zM48.43 22.97h3.633v.854h-2.627v3.46h-1.02V22.97h.014zm-4.924.854v1.326h1.697c.255 0 .42-.046.51-.153.09-.106.15-.274.15-.518 0-.229-.045-.396-.135-.488-.105-.106-.27-.167-.526-.167h-1.696zm0 2.18v1.264h-1.02V22.97h2.897c.54 0 .915.122 1.156.35.225.23.345.626.345 1.159 0 .549-.12.945-.345 1.174-.226.244-.6.35-1.141.35h-1.892zm-6.2-1.281h2.522v-.183c0-.335-.045-.533-.15-.625-.105-.091-.33-.122-.676-.122h-1.306c-.3 0-.495.046-.63.137-.12.092-.18.26-.18.473h-1.021c0-.564.15-.96.45-1.189.255-.183.66-.29 1.201-.29h1.682c.63 0 1.05.107 1.29.32.226.214.346.625.346 1.25v1.265c0 .58-.105.976-.33 1.204-.225.214-.63.336-1.216.336H37.41c-.615 0-1.02-.107-1.23-.305-.211-.213-.301-.61-.301-1.189h1.02c0 .26.06.427.18.518.12.092.331.122.646.122h1.306c.3 0 .51-.046.631-.137.135-.107.195-.32.195-.64v-.198h-2.552v-.747z" fill="#2B2A29"/><path fill-rule="evenodd" clip-rule="evenodd" d="M37.054 37.203h18.525c6.5 0 11.89-4.983 12.7-11.354h-6.875c-.69 2.362-2.868 4.1-5.42 4.1H35.537l-1.53 7.254h3.047z" fill="#E31E24"/></g><defs><filter id="filter0_d" x="0" y="0" width="101" height="107" filterUnits="userSpaceOnUse" color-interpolation-filters="sRGB"><feFlood flood-opacity="0" result="BackgroundImageFix"/><feColorMatrix in="SourceAlpha" values="0 0 0 0 0 0 0 0 0 0 0 0 0 0 0 0 0 0 127 0"/><feOffset dy="24"/><feGaussianBlur stdDeviation="12"/><feColorMatrix values="0 0 0 0 0 0 0 0 0 0 0 0 0 0 0 0 0 0 0.25 0"/><feBlend in2="BackgroundImageFix" result="effect1_dropShadow"/><feBlend in="SourceGraphic" in2="effect1_dropShadow" result="shape"/></filter></defs></svg>
